img/card-visa.svg

<svg width="26" height="19" viewBox="0 0 26 19" fill="none" xmlns="http://www.w3.org/2000/svg">
<path d="M3 0.75C1.75736 0.75 0.75 1.75736 0.75 3V16C0.75 17.2426 1.75736 18.25 3 18.25H23C24.2426 18.25 25.25 17.2426 25.25 16V3C25.25 1.75736 24.2426 0.75 23 0.75H3Z" fill="white" stroke="#CAD2DB" stroke-width="0.5"/>
<path fill-rule="evenodd" clip-rule="evenodd" d="M14.9296 7.3211C14.6968 7.23473 14.3321 7.14215 13.8765 7.14215C12.7155 7.14215 11.8976 7.72014 11.8906 8.54851C11.8841 9.16086 12.4745 9.50251 12.9202 9.70636C13.3775 9.91519 13.5313 10.0484 13.5292 10.235C13.5263 10.5206 13.1639 10.6511 12.8262 10.6511C12.3559 10.6511 12.1061 10.5866 11.7202 10.4275L11.5687 10.3597L11.4038 11.3137C11.6783 11.4327 12.1858 11.5358 12.7127 11.5411C13.9478 11.5411 14.7497 10.9697 14.7588 10.0851C14.7632 9.60031 14.4502 9.23132 13.7723 8.92722C13.3616 8.73007 13.1101 8.59847 13.1127 8.39887C13.1127 8.22171 13.3256 8.03232 13.7856 8.03232C14.1699 8.02644 14.4482 8.10922 14.665 8.19559L14.7703 8.24474L14.9296 7.3211Z" fill="#00579F"/>
<path fill-rule="evenodd" clip-rule="evenodd" d="M16.4937 9.96711C16.5909 9.72154 16.9618 8.77578 16.9618 8.77578C16.9549 8.78713 17.0583 8.52908 17.1177 8.36907L17.1971 8.73651C17.1971 8.73651 17.4221 9.75379 17.469 9.96711H16.4937ZM17.9426 7.22028H17.0347C16.7534 7.22028 16.5429 7.29612 16.4194 7.57368L14.6743 11.4793H15.9081C15.9081 11.4793 16.11 10.9541 16.1555 10.8388C16.2904 10.8388 17.489 10.8406 17.6604 10.8406C17.6956 10.9898 17.8033 11.4793 17.8033 11.4793H18.8936L17.9426 7.22028Z" fill="#00579F"/>
<path fill-rule="evenodd" clip-rule="evenodd" d="M8.50777 7.2193L7.35736 10.1255L7.23481 9.53484C7.02068 8.85399 6.35344 8.11641 5.60742 7.74716L6.65932 11.4742L7.90255 11.4728L9.75241 7.2193H8.50777Z" fill="#00579F"/>
<path fill-rule="evenodd" clip-rule="evenodd" d="M6.2901 7.21664H4.3954L4.38037 7.3053C5.8545 7.65805 6.82984 8.51059 7.23473 9.5348L6.82274 7.57642C6.75155 7.30661 6.54527 7.22603 6.2901 7.21664Z" fill="#F9A51A"/>
<path fill-rule="evenodd" clip-rule="evenodd" d="M10.2283 7.21619L9.49365 11.478H10.6682L11.4033 7.21619H10.2283Z" fill="#00579F"/>
<path fill-rule="evenodd" clip-rule="evenodd" d="M1 3C1 1.89543 1.89543 1 3 1H23C24.1046 1 25 1.89543 25 3V6H1V3Z" fill="#00579F"/>
<path fill-rule="evenodd" clip-rule="evenodd" d="M25 16C25 17.1046 24.1046 18 23 18L3 18C1.89543 18 1 17.1046 1 16V13L25 13V16Z" fill="#F9A51A"/>
</svg>

<svg width="26" height="19" fill="none" xmlns="http://www.w3.org/2000/svg"><path d="M3 .75A2.25 2.25 0 00.75 3v13A2.25 2.25 0 003 18.25h20A2.25 2.25 0 0025.25 16V3A2.25 2.25 0 0023 .75H3z" fill="#fff" stroke="#CAD2DB" stroke-width=".5"/><path fill-rule="evenodd" clip-rule="evenodd" d="M14.93 7.321a3.065 3.065 0 00-1.053-.179c-1.162 0-1.98.578-1.986 1.407-.007.612.584.954 1.03 1.157.457.21.61.342.608.529-.003.286-.365.416-.703.416-.47 0-.72-.064-1.106-.223l-.151-.068-.165.954c.274.119.782.222 1.309.227 1.235 0 2.037-.571 2.046-1.456.004-.485-.309-.854-.987-1.158-.41-.197-.662-.329-.66-.528 0-.177.214-.367.674-.367.384-.006.662.077.879.164l.105.049.16-.924zm1.564 2.646l.468-1.191c-.007.011.096-.247.156-.407l.08.368.271 1.23h-.975zm1.449-2.747h-.908c-.282 0-.492.076-.616.354l-1.745 3.905h1.234s.202-.525.248-.64l1.504.002c.036.149.143.638.143.638h1.09l-.95-4.259zm-9.435 0l-1.15 2.906-.123-.591c-.214-.681-.882-1.419-1.628-1.788l1.052 3.727 1.244-.001 1.85-4.254H8.507z" fill="#00579F"/><path fill-rule="evenodd" clip-rule="evenodd" d="M6.29 7.217H4.395l-.015.088c1.474.353 2.45 1.206 2.855 2.23l-.412-1.959c-.071-.27-.278-.35-.533-.36z" fill="#F9A51A"/><path fill-rule="evenodd" clip-rule="evenodd" d="M10.228 7.216l-.734 4.262h1.174l.735-4.262h-1.175zM1 3a2 2 0 012-2h20a2 2 0 012 2v3H1V3z" fill="#00579F"/><path fill-rule="evenodd" clip-rule="evenodd" d="M25 16a2 2 0 01-2 2H3a2 2 0 01-2-2v-3h24v3z" fill="#F9A51A"/></svg>
